!!!COM: Hugo Wolf
!!!CNT: Deutscher
!!!TXO: Deutsche 
!!!OTL: Ganymed
!!!ODT: 1889/01/11
!!!ONM: No. 50
!!!LYR: Johann Wolfgang von Goethe
!!!ENC: Brian Bice
!!!YOR: 45 Songs on Poems of Goethe and Eichendorff, Dover Publications, 1995
!!NB: Vocal melody and text only encoded.
**kern	**silbe
*clefG2	*
*k[f#c#]	*
*M4/4	*
=2	=2
8r	.
{4f#	{Wie
8f#	im
8f#	Mor-
8a	-gen-
[4a	-glan-
=3	=3
8a]	|
4dd	-ze
4dd	du
4dd	rings
8dd	mich
=4	=4
4dd	an-
2a}	-glu2hst,}
4r	.
=5	=5
4r	.
{[4cc#	{Fru2h-
8cc#]	|
4a#	-ling,
8r	.
=6	=6
8r	.
8cc#	Ge-
[4dd#	-lieb-
8dd#]	|
8cc#	|
[4cc#	-ter!
=7	=7
8cc#]}	|}
8r	.
4r	.
2r	.
=8	=8
4r	.
{4b-	{Mit
4.b-	tau-
8dd	-send-
=9	=9
4.dd	-fa-
8ffn	-cher
[2ffn	Lie-
=10	=10
2ffn_	|
8ffn]	|
8d	-bes
8ccn	won-
[8b-	-ne
=11	=11
8b-]	|
8a	sich
8b-	an
8ccn	mein
4ccn	Herz
4b-}	dra2ngt}
=12	=12
8r	.
{4b-	{dei-
8b-	-ner
(8b-	e-
8ffn)	|
8ffn	-wi-
8ffn	-gen
=13	=13
4ffn	Wa2r-
4b-	-me
4ee-	hei-
8ee-	-lig
8ee-	Ge-
=14	=14
2dd	-fu2hl,
8r	.
8dd	un-
[4ff#	-end-
=15	=15
*M6/4	*
8ff#]	|
4ee	-li-
8dd	-che
(8dd	Scho2-
4a)	|
8g}	-ne!}
2r	.
=17	=17
*M4/4	*
8r	.
{8b-	{Dass
8b-	ich
8dd	dich
8.dd	fas-
16a	-sen
4a}	mo2cht}
=19	=19
8r	.
{8a#	{in
8.a#	die-
16dd	-sen
2dd	Arm,
=20	=20
8r	.
8dd	in
8.dd	die-
16ff#	-sen
[2ff#	Arm!
=21	=21
8ff#]}	|}
8r	.
4r	.
2r	.
=23	=23
4r	.
{4b	{Ach,
8r	.
8b	an
8b	dei-
8b	-nem
=24	=24
8b	Bu-
8dd	-sen
[4dd	lieg
8dd]	|
4b	ich,
8r	.
=25	=25
8r	.
[8cc#	schmach-
4cc#_	|
8cc#]	|
8a	|
4a}	-te,}
=26	=26
2r	.
8r	.
{8a	{und
8a	dei-
8a	-ne
=27	=27
8cc#	Blu-
4b	-men,
8r	.
8r	.
8b	dein
[4dd	Gras
=28	=28
8dd]	|
4.dd	dra2n-
8dd	-gen
8dd	sich
8dd	an
8ff#	mein
=29	=29
2a}	Herz.}
2r	.
=30	=30
4r	.
8r	.
{4dd	{Du
4dd	ku2hlst
8dd	den
=31	=31
(8dd	bren-
8cc#)	|
8cc#	-nen-
8dd	-den
(8dd	Durst
8cc#)	|
8cc#	mei-
8dd	-nes
=32	=32
4.dd	Bu-
8cc#	-sens,
4r	.
[4cc#	lieb-
=33	=33
4cc#]	|
8ee	-li-
8dd#	-cher
8.cc#	Mor-
16g#	-gen-
4g#}	-wind,}
=34	=34
4r	.
{[4g#	{ruft
8g#]	|
4g#	drein
8g#	die
=35	=35
8.g#	Nach-
16a	-tig
8a	all
(8ccn	lie-
8b#)	|
8cc#	|
8cc#	-bend
8cc#	nach
=36	=36
4cc#	mir
8cc#	aus
8ee	dem
8.ee	Ne-
16dd#	-bel-
4dd#}	-tal.}
=37	=37
2r	.
8r	.
{8ee-	{Ich
([4ee-	komm,
=38	=38
8ee-]	|
8dd-)	|
8r	.
16r	.
16ff-	ich
4.ff-	kom-
8ee-}	-me!}
=39	=39
4r	.
16r	.
{16ee-	{Wo-
4ee-	-hin?
8r	.
16r	.
8ee-	Ach,
16ee-	wo-
=40	=40
2ff-}	-hin?}
2r	.
=42	=42
2r	.
8.r	.
{16a	{Hin-
[4a	-auf!
=43	=43
2a]	|
8.r	.
16dd	Hin-
[4dd	-auf
=44	=44
4dd]	|
2a}	strebt's.}
4r	.
=45	=45
4r	.
8r	.
{8a#	{Es
[2a#	schwe-
=46	=46
8a#]	|
4a#	-ben
8cc#	die
4.cc#	Wol-
8cc#	-ken
=47	=47
4cc#	ab-
4.f#}	-wa2rts.}
8r	.
4r	.
=48	=48
4r	.
8r	.
{8b-	{Die
8b-	Wol-
8dd	-ken
[4dd	nei-
=49	=49
8dd]	|
8ffn	-gen
8ffn	sich
8ffn	der
[2ffn	seh-
=50	=50
8ffn]	|
4ffn	-nen-
8ffn	-den
(4ffn	Lie-
8ee-)	|
8dd}	-be.}
=51	=51
4r	.
{([4ee-	{Mir!
8ee-]	|
4dd)	|
8r	.
=52	=52
4r	.
([4gg-	Mir!
8gg-]	|
4.ffn)}	|}
=53	=53
8r	.
{8ffn	{In
8ffn	eu-
8ffn	-rem
8ee-	Scho-
8b-	-sse
[4ggn	auf-
=54	=54
4ggn]	|
4bn	-wa2rts!
8r	.
8dd	um-
[4ff#	-fan-
=55	=55
*M6/4	*
8ff#]	|
4ee	-gend
8dd	um-
(8dd	-fan-
4a)	|
8g}	-gen!}
2r	.
=56	=56
*M4/4	*
2r	.
4r	.
{[4dd	{Auf-
=57	=57
4dd]	|
4.dd	-wa2rts
8dd	an
8.dd	dei-
16dd	-nen
=58	=58
4dd	Bu-
4f#}	-sen,}
4r	.
{[4dd	{all-
=59	=59
4dd]	|
2dd	-lie-
[4dd	-ben-
=60	=60
8dd]	|
8dd	-der
[4dd	Va-
(8.dd]	|
16ff#)	|
[4ff#	-ter!
=61	=61
2ff#_	|
8ff#]}	|}
8r	.
4r	.
*-	*-
